dist/img/phone-icon.svg

<svg width="24" height="24" viewBox="0 0 24 24" fill="none" xmlns="http://www.w3.org/2000/svg">
<path d="M4.76085 3.66187C4.8315 3.59123 4.86682 3.5559 4.89794 3.52731C5.6631 2.82423 6.83921 2.82423 7.60436 3.52731C7.63548 3.5559 7.67081 3.59123 7.74145 3.66187L9.19965 5.12007C10.0017 5.92212 10.2311 7.13336 9.77785 8.17314C9.32461 9.21293 9.554 10.4242 10.356 11.2262L12.7529 13.623C13.5549 14.4251 14.7661 14.6545 15.8059 14.2012C16.8457 13.748 18.057 13.9774 18.859 14.7794L20.3172 16.2376C20.3878 16.3083 20.4232 16.3436 20.4518 16.3747C21.1548 17.1399 21.1548 18.316 20.4518 19.0811C20.4232 19.1123 20.3878 19.1476 20.3172 19.2182L19.4309 20.1046C18.7091 20.8264 17.6685 21.1294 16.6721 20.9079C9.88248 19.3991 4.57995 14.0966 3.07115 7.307C2.84971 6.31054 3.15272 5.27001 3.87451 4.54821L4.76085 3.66187Z" stroke="white" stroke-opacity="0.8" stroke-width="1.5"/>
</svg>

<svg width="24" height="24" fill="none" xmlns="http://www.w3.org/2000/svg"><path d="m4.76 3.662.138-.135a2 2 0 0 1 2.706 0c.031.029.067.064.137.135L9.2 5.12a2.759 2.759 0 0 1 .578 3.053 2.759 2.759 0 0 0 .578 3.053l2.397 2.397a2.758 2.758 0 0 0 3.053.578 2.759 2.759 0 0 1 3.053.578l1.458 1.459c.07.07.106.106.135.137a2 2 0 0 1 0 2.706 4.609 4.609 0 0 1-.135.137l-.886.887a2.985 2.985 0 0 1-2.759.803 17.913 17.913 0 0 1-13.6-13.601 2.986 2.986 0 0 1 .803-2.759l.886-.886Z" stroke="#fff" stroke-opacity=".8" stroke-width="1.5"/></svg>
